src/lib/packages/icons/src/assets/line/user-heart.svg

<svg width="24" height="24" viewBox="0 0 24 24" fill="none" xmlns="http://www.w3.org/2000/svg">
<path d="M10.009 10.75C7.66503 10.75 5.75903 8.843 5.75903 6.5C5.75903 4.157 7.66503 2.25 10.009 2.25C12.353 2.25 14.259 4.157 14.259 6.5C14.259 8.843 12.353 10.75 10.009 10.75ZM10.009 3.75C8.49203 3.75 7.25903 4.983 7.25903 6.5C7.25903 8.017 8.49203 9.25 10.009 9.25C11.526 9.25 12.759 8.017 12.759 6.5C12.759 4.983 11.525 3.75 10.009 3.75ZM11 21.75H6C3.582 21.75 2.25 20.425 2.25 18.02C2.25 15.358 3.756 12.25 8 12.25H12C12.421 12.25 12.787 12.276 13.119 12.33C13.528 12.395 13.807 12.78 13.74 13.189C13.675 13.598 13.281 13.8761 12.881 13.8101C12.629 13.7691 12.341 13.75 12 13.75H8C4.057 13.75 3.75 17.019 3.75 18.02C3.75 19.583 4.423 20.25 6 20.25H11C11.414 20.25 11.75 20.586 11.75 21C11.75 21.414 11.414 21.75 11 21.75ZM18 22.679C17.896 22.679 17.791 22.657 17.693 22.614C17.54 22.545 13.929 20.898 13.339 17.908C13.101 16.703 13.334 15.56 13.981 14.77C14.523 14.107 15.2991 13.755 16.2271 13.75C16.2321 13.75 16.237 13.75 16.241 13.75C17.011 13.75 17.59 14.0651 18 14.4611C18.41 14.0651 18.9891 13.75 19.7581 13.75C19.7631 13.75 19.767 13.75 19.772 13.75C20.701 13.754 21.478 14.106 22.019 14.769C22.665 15.558 22.899 16.702 22.662 17.908H22.661C22.071 20.898 18.461 22.545 18.307 22.614C18.209 22.657 18.104 22.679 18 22.679ZM16.24 15.25C16.238 15.25 16.237 15.25 16.235 15.25C15.762 15.252 15.394 15.41 15.141 15.719C14.786 16.155 14.6621 16.864 14.8101 17.616C15.1651 19.416 17.213 20.668 17.999 21.089C18.785 20.669 20.833 19.4159 21.188 17.6169C21.335 16.8629 21.2121 16.153 20.8571 15.719C20.6041 15.41 20.236 15.253 19.762 15.25C19.761 15.25 19.759 15.25 19.757 15.25C19.019 15.25 18.7361 15.971 18.7061 16.054C18.5981 16.351 18.314 16.552 17.999 16.552C17.997 16.552 17.994 16.552 17.991 16.552C17.673 16.549 17.389 16.348 17.288 16.047C17.263 15.971 16.979 15.25 16.24 15.25ZM21.925 17.762H21.9351H21.925Z" fill="currentColor"/>
</svg>

<svg xmlns="http://www.w3.org/2000/svg" width="24" height="24" fill="none"><path fill="currentColor" d="M10.009 10.75a4.255 4.255 0 0 1-4.25-4.25 4.255 4.255 0 0 1 4.25-4.25 4.255 4.255 0 0 1 4.25 4.25 4.255 4.255 0 0 1-4.25 4.25Zm0-7a2.752 2.752 0 0 0-2.75 2.75 2.752 2.752 0 0 0 2.75 2.75 2.752 2.752 0 0 0 2.75-2.75 2.753 2.753 0 0 0-2.75-2.75Zm.991 18H6c-2.418 0-3.75-1.325-3.75-3.73 0-2.662 1.506-5.77 5.75-5.77h4c.421 0 .787.026 1.119.08.409.065.688.45.621.859a.753.753 0 0 1-.859.621 5.514 5.514 0 0 0-.881-.06H8c-3.943 0-4.25 3.269-4.25 4.27 0 1.563.673 2.23 2.25 2.23h5a.75.75 0 0 1 0 1.5Zm7 .929a.766.766 0 0 1-.307-.065c-.153-.069-3.764-1.716-4.354-4.706-.238-1.205-.005-2.348.642-3.138.542-.663 1.318-1.015 2.246-1.02h.014c.77 0 1.349.315 1.759.711.41-.396.99-.711 1.758-.711h.014c.929.004 1.706.356 2.247 1.019.646.789.88 1.933.643 3.139h-.001c-.59 2.99-4.2 4.637-4.354 4.706a.766.766 0 0 1-.307.065Zm-1.76-7.429h-.005c-.473.002-.841.16-1.094.469-.355.436-.479 1.145-.33 1.897.354 1.8 2.402 3.052 3.188 3.473.786-.42 2.834-1.673 3.189-3.472.147-.754.024-1.464-.33-1.898-.254-.309-.622-.466-1.096-.469h-.005c-.738 0-1.02.721-1.05.804a.757.757 0 0 1-.708.498h-.008a.747.747 0 0 1-.703-.505c-.025-.076-.309-.797-1.048-.797Zm5.685 2.512h.01-.01Z"/></svg>
